!!!COM: Fanny (Mendelssohn) Hensel
!!!CNT: Deutsch
!!!TXO: Deutsch
!!!OTL: ""
!!!LYR: von Eichendorff, Joseph Freiherr
!!!OPR: Ankla2nge
!!!OPS: Op. 
!!!ONM: No. 3
!!!ENC: Emily Thomas
!!!YOR: Hensel: Ausgewa2hlte Lieder fu2r Singstimme und Klavier
!!!YOR: Breitkopf & Hartel, 1994 vol. 2
!!!ODT: 1841/
!!NB: Vocal melody and text encoded.
**kern	**silbe
=1-	=1
*clefG2	*
*k[]	*
*M2/4	*
*MM[Allegro molto]	*
2r	.
=2	=2
4r	.
{8.cc	{Ko2nnt
16b	ich
=3	=3
8a	zu
8a	den
8.dd	Wa2l-
16a	-dern
=4	=4
8cc	flu2ch-
8b}	-ten}
8r	.
{16ee	mit
16dd	dem
=5	=5
8cc	Gru2n
8cc	in
8gg	fri-
8dd	-scher
=6	=6
4ee}	Lust}
4r	.
=7	=7
2r	.
=8	=8
{4.g	{mich
8cc	zum
=9	=9
4.ee	Him-
8dd	-mels-
=10	=10
8cc	glanz
8b	|
8a	auf
8g	|
=11	=11
4g	rich-
8cc}	-ten,}
8r	.
=12	=12
{4.ee	{stark
8b	und
=13	=13
4.cc	frei
8cc	wa2r
=14	=14
4.b	die
8f#	-se
=15	=15
4g}	Brust,}
4r	.
=16	=16
{4cc	{stark
4g	und
=17	=17
[2gg	frei
=18	=18
2gg_	|
=19	=19
8gg]	|
8dd	|
8b	wa2r
8g	|
=20	=20
4.b	die-
8a	-se
=21	=21
4g}	Brust!}
4r	.
=22	=22
4r	.
{8.ee	{Ko2nnt
16dd	ich
=23	=23
8cc	zu
8a	den
8.ff#	Wa2l-
16ee	-dern
=24	=24
4ee	flu2ch-
8dd#}	-ten,}
8r	.
=25	=25
4r	.
{8b	{mit
8b	dem
=26	=26
8gg	Gru2n
8ff#	|
8ee	in
8cc	|
=27	=27
4.b	fri-
8a	-scher
=28	=28
4g}	Lust}
4r	.
=29	=29
2r	.
=30	=30
{4.b	{mich
8ee	zum
=31	=31
8ee	Him-
8cc	|
8b	-mels-
8a	|
=32	=32
4.b	-glanz
8ee	auf-
=33	=33
8ee	rich-
8cc	|
8b	-ten,
8a}	|}
=34	=34
{4f#	{stark
4b	und
=35	=35
8gg	frei
8dd#	|
8ee	wa2r
8cc	|
=36	=36
4.b	dann
8dd#	die
=37	=37
4ee}	Brust,}
4r	.
=38	=38
4r	.
{8.cc	{ko2nnt
16b	ich
=39	=39
8a	zu
8a	den
8.dd	Wa2l-
16a	-dern
=40	=40
4cc	flu2ch-
8b}	-ten!}
8r	.
=41	=41
2r	.
=42	=42
{4.ff	{Ho2r-
8dd	-ner-
=43	=43
4.b	-klang
8dd	und
=44	=44
4.ff	Lie-
8dd	-der
=45	=45
4cc	ka2-
4b}	-men}
=46	=46
{4.ee	{nicht
8dd	so
=47	=47
4.cc	schmerz-
8b	-lich
=48	=48
4a	an
8b	|
8cc	mein
=49	=49
4b}	Herz,}
4r	.
=50	=50
2r	.
=51	=51
{4.ee	{Ho2r-
8cc	-ner-
=52	=52
4.cc	-klang
8a	und
=53	=53
4a	Lie-
4b	-der
=54	=54
8dd	ka2-
8cc	|
4b}	-men}
=55	=55
{4.ff	nicht
8dd	so
=56	=56
4.dd	schmerz-
8a	-lich
=57	=57
4.a	an
8g#	mein
=58	=58
4b}	Herz!}
4r	.
=59	=59
{4.gn	{Fro2h-
8cc	-lich
=60	=60
4.ee	wollt
8dd	ich
=61	=61
8cc	Ab-
8b	|
8a	-schied
8g	|
=62	=62
4g	neh-
8cc}	-men,}
8r	.
=63	=63
{4.ee	{zo2g
8b	auf
=64	=64
4.cc	e-
8cc	-wig
=65	=65
4.ff	wa2l-
8dd	-der-
=66	=66
4b}	wa2rts,}
4r	.
=67	=67
{4cc	{fro2h-
4cc	-lich
=68	=68
4.cc	wollt
8cc	ich
=69	=69
4ee	Ab-
8dd	-schied
8cc	|
=70	=70
4.cc	neh-
8cc}	-men,}
=71	=71
{4cc	{zo2g
4dd	auf
=72	=72
4ee	e-
4ff	-wig
=73	=73
[2gg	wa2l-
=74	=74
8gg]	|
8ff	|
8ee	-der-
8dd	|
=75	=75
4cc}	-wa2rts,}
8r	.
{8g	{auf
=76	=76
4cc	e-
4ee	-wig
=77	=77
[2gg	wa2l-
=78	=78
4gg]	|
4b	-der-
=79	=79
4cc}	-wa2rts.}
4r	.
==	==
*-	*-
